!!!id: EG094c
!!!page: 98
!!!COM: Anonymous
!!!LYR: Anonymous
!!!PTL@@FR: Chansons Populaires du Canada
!!!OTL@@FR: Sur le pont d'Avignon tout le monde y passe
!!!PUB: G. E. Desbarats
!!!YEM:
!!!PDT: 1865
!!!SMA:
!!!OMD:
!!!AGN-Laforte:
!!!AGN-type:
!!!AGN-rime:
**kern
*clefG2
*k[f#]
*G:
*M2/4
*
*
=1
8g
8g
4g
=2
8a
8a
4a
=3
8.b
16cc
8dd
8g
=4
(4a
8g)
8r
!!LO:PB:g=original
=5
8g
8g
4g
=6
8a
8a
4a
=7
8.b
16cc
8dd
8g
=8
(4a
8g)
8r
!LO:TX:a:B:t=FIN.
!!LO:PB:g=original
=9
8a
16a
16a
8a
8a
=10
4e
8r
=11
8a
16a
16a
8a
8a
!!LO:PB:g=original
=12
4d
8r
!LO:TX:b:t=D.C.
==||
*
*
==|
!!!RNB: Final eighth rest & one in m.10 flipped backward in original
*-
